!!!COM: Schubert, Franz
!!!CNT: Deutscher
!!!TXO: Deutsch
!!!LYR: Johann Wolfgang von Goethe
!!!OTL: "Willkommen und Abschied"
!!!OPS: Op. 56
!!!ONM: No. 1
!!!ODT: 1822/
!!NB: Vocal melody only encoded.
!!NB: Original key: C Major 
**kern	**silbe
*clefG4	*
*k[b-e-a-d-]	*
*M4/4	*
*MM[Geschwind]	*
=2	=2
2r	.
8r	.
{8e-	{Es
8f	schlug
8g	mein
=3	=3
4.a-	Herz;
8c	ge-
4.f	schwind
8e-	zu
=4	=4
4c	Pfer-
4A-}	-de!}
8r	.
{8c	{Es
8c	war
8c	ge-
=5	=5
4.c	-tan.
8c	fast
4.b-	eh'
8dn	ge-
=6	=6
2e-}	-dacht;}
4r	.
8r	.
{8e-	{der
=7	=7
4.en	A-
8f	-bend
8.b-	wieg-
16a-	-te
8g	schon
8f	die
=8	=8
2e-	Er-
4c}	-de,}
8r	.
{8e-	{und
=9	=9
4.en	an
8f	den
8.b-	Ber-
16a-	-gen
8g	hing
8f	die
=10	=10
2e-}	Nacht;}
4r	.
{4e-	{schon
=11	=11
4.e-	stand
8e-	im
8.g-	Ne-
16f-	-bel-
8e-	-kleid
8d-	die
=12	=12
4e-	Ei-
4c-}	-che,}
4r	.
{4e-	{ein
=13	=13
8.d-	auf-
16e-	-ge-
8f-	-tu2rm-
8g-	-ter
4.a-	Rie-
8c-	-se,
=14	=14
4g-}	da,}
4r	.
4r	.
{4d-	{wo
=15	=15
4.d-	Fin-
8d-	-ster-
8d-	-niss
8d-	aus
8d-	dem
8d-	Ge-
=16	=16
2d-	stra2u-
4B-}	-che}
{4d-	{mit
=17	=17
4.e-	hun-
8d-	-dert
8.cn	schwar-
16d-	-zen
8.e-	Au-
16G	-gen
=18	=18
4a-}	sah,}
4r	.
4r	.
8r	.
{8f	{mit
=19	=19
4.e-	hun-
8d-	-dert
8.c	schwar-
16d-	-zen
8.e-	Au-
16G	-gen
=20	=20
4A-}	sah.}
2.r	.
=21	=21
2.r	.
{4a-	{Der
=22	=22
4.a-	Mond
8a-	vom
8.f-	ei-
16a-	-nem
8.b--	Wol-
16a-	-ken-
=23	=23
4.a-	-hu2-
8g-	|
4e-}	-gel}
8r	.
{8e-	{sah
=24	=24
4.f-	kla2g-
8f-	-lich
8.a-	aus
16g-	dem
8g-	Duft
8f-	her-
=25	=25
2e-}	-vor,}
4r	.
{4a-	{die
=26	=26
4.a-	Win-
8a-	-de
8.f-	schwan-
16a-	-gen
8.b--	lei-
16a-	-se
=27	=27
4.a-	Flu2-
8g-	|
4e-}	-gel,}
8r	.
{8e-	{um-
=28	=28
4.f-	-sau-
8f-	-sten
8.g-	schau-
16f-	-er-
8e-	-lich
8d-	mein
=29	=29
2.e-}	Ohr;}
4r	.
=30	=30
2..r	.
{8e-	{die
=31	=31
4.e-	Nacht
8e-	schuf
8.b--	tau-
16g-	-send
8e-	Un-
8B--	-ge-
=32	=32
8B--q	-heu-
4A-	|
4A-}	-er,}
4r	.
{4f	{doch
=33	=33
4.f	frisch
8f	und
8.b-	fro2h-
16a-	-lich
8g	war
8f	mein
=34	=34
2e-}	Mut;}
8r	.
{8e-	{in
8e-	mei-
8e-	-nen
=35	=35
4.en	A-
8f	-dern
8b-	wel-
8a-	|
8g	-ches
8f	|
=36	=36
4e-	Feu-
4c}	-er,}
8r	.
{8e-	{in
8e-	mei-
8e-	-nem
=37	=37
4.en	Her-
8f	-zen
8b-	wel-
8a-	|
8g	-che
8f	|
=38	=38
4e-}	Glut,}
8r	.
{8e-	{in
4e-	mei-
4a-	-nen
=39	=39
4f	A-
4b-	-dern
4.g	wel-
8dd-	-ches
=40	=40
4dd-	Feu-
8cc}	-er,}
{8a-	{in
4e-	mei-
4a-	-nem
=41	=41
4f	Her-
4b-	-zen
4.g	wel-
8dd-	-che
=42	=42
8dd-	Glut,
8cc}	|}
{8dd-	{o
8b-	|
4a-	wel-
8g	-che
8dd-	|
=43	=43
8dd-	Glut,
8cc	|
8dd-	o
8b-	|
4.ee-	wel-
8g	-che
=44	=44
4a-}	Glut!}
2.r	.
=48	=48
{2a-	{Dich
4f	sah
4f	ich,
=49	=49
4.f	und
8f	die
4.b-	mil-
8a-	-de
=50	=50
8a-q	Freu-
4g-	|
4g-}	-de}
8r	.
{8g-	{floss
8f	von
8e-	dem
=51	=51
4d-	su2-
8e-	-ssen
8f	|
8g-	Blick
8a-	|
8b-	auf
8g-	|
=52	=52
2f	mich;
4e-}	|}
4r	.
=53	=53
{2.a-	{ganz
8f	war
8f	mein
=54	=54
4.f	Herz
8f	an
8f	dei-
4b-	|
8a-	-ner
=55	=55
8a-q	Sei-
4g-	|
4g-}	-te,}
8r	.
{8g-	{und
8g-	je-
8g-	-der
=56	=56
4f	A-
8a-	-tem-
8g-	|
4f	-zug
4e-	fu2r
=57	=57
2cc	dich,
8dd-}	|}
{8f	{und
8f	je-
8f	-der
=58	=58
4f	A-
8a-	-tem
8g-	|
4f	-zug
4e-	fu2r
=59	=59
2cc	dich,
8dd-}	|}
{8f	{und
8f	je-
8f	-der
=60	=60
4f	A-
8a-	-tem
8g-	|
4f	-zug
4e-	fu2r
=61	=61
2d-}	dich.}
4r	.
{4a-	{Ein
=62	=62
4.a-	ro-
8f	-sen-
8f	-farb-
8cc-	-nes
8b-	Fru2h-
8f	-lings-
=63	=63
8a-q	-wet-
4g-	|
4g-}	-ter}
4r	.
{4g-	{um-
=64	=64
4.a-	-gab
8a-	das
8.a-	lieb-
16cc-	-li-
8b-	-che
8a-	Ge-
=65	=65
2g-}	-sicht,}
4r	.
{4g-	{und
=66	=66
4.gn	Za2rt-
8g	-lich-
4g	-keit
4g	fu2r
=67	=67
2a-}	mich,}
4r	.
{4a-	{fu2r
=68	=68
2an}	mich}
4r	.
{4an	{ihr
=69	=69
2ddn	Go2t-
4cc#}	-ter!}
8r	.
{8g#	{ich
=70	=70
2an	hofft'
4e#}	es,}
4r	.
=71	=71
{4.f#	{ich
8f#	ver-
4.en	-dient'
8dn	es
=72	=72
4c#}	nicht,}
8r	.
{8an	{ihr
2ddn	Go2t-
=73	=73
4cc#}	-ter!}
2r	.
8r	.
{8g#	{ich
=74	=74
2an	hofft'
4e#}	es,}
4r	.
=75	=75
{4.f#	{ich
8f#	ver-
4.fn	-dient
8en	es
=76	=76
4An}	nicht.}
2r	.
{4en	{Doch
=77	=77
2e-}	ach,}
4r	.
{4e-	{schon
=78	=78
4.e-	mit
8e-	der
4.f-	Mor-
8e-	-gen-
=79	=79
8d-q	-son-
4c-	|
4c-}	-ne}
8r	.
{8e-	{ver-
8e-	-engt
8e-	der
=80	=80
4.a-	Ab-
8a-	-schied
4.b-	mir
8a-	das
=81	=81
2gn}	Herz:}
8r	.
{8e-	{in
8e-	dei-
8e-	-nen
=82	=82
4.en	Ku2s-
8f	-sen
8b-	wel-
8a-	|
8g	-che
8f	|
=83	=83
4e-	Won-
4c}	-ne!}
8r	.
{8e-	{in
8e-	dei-
8e-	-nem
=84	=84
4.en	Au-
8f	-ge
8b-	wel-
8a-	|
8g	-cher
8f	|
=85	=85
2e-	Schmerz!
4c}	|}
8r	.
{8a-	{Ich
=86	=86
4.a-	ging,
8a-	du
8.f-	stand'st
16a-	und
8.b--	sahst
16a-	zur
=87	=87
4.a-	Er-
8g-	|
4.e-}	-den}
{8e-	{und
=88	=88
4.f-	sahst
8f-	mir
8.a-	nach
16g-	mit
8g-	nas-
8f-	-sem
=89	=89
2e-}	Blick,}
4r	.
{4a-	{du
=90	=90
4.a-	stand'st
8a-	und
8.f-	sahst
16a-	|
8.b--	zur
16a-	|
=91	=91
4.a-	Er-
8g-	|
4.e-}	-den}
{8e-	{und
=92	=92
4.f-	sahst
8f-	mir
8.a-	nach
16g-	mit
8f-	nas-
8e-	-sem
=93	=93
2d-}	Blick:}
4r	.
{4a-	{und
=94	=94
[1b-	doch,
=95	=95
2b-]}	|}
4r	.
{4e-	{und
=96	=96
4e-	doch
4a-	welch'
4fn	Glu2ck,
4b-	ge-
=97	=97
4.g	-liebt
8dd-	zu
4dd-	wer-
8cc}	-den!}
{8a-	{und
=98	=98
4e-	lie-
4a-	-ben,
4f	Go2t-
4b-	-ter,
=99	=99
4.g	welch
8dd-	ein
8dd-	Glu2ck,
8cc}	|}
{8dd-	{o
8b-	|
=100	=100
4a-	welch
8g	ein
8dd-	|
8dd-	Glu2ck,
8cc	|
8dd-	und
8b-	|
=101	=101
4a-	lie-
8g	-ben,
8dd-	|
8dd-	lie-
8cc	|
8dd-	-ben,
8b-}	|}
=102	=102
{2.ee-	{welch
4g	ein
=103	=103
2a-}	Glu2ck!}
2r	.
*-	*-
